symbolic/22x22/apps/com.github.muriloventuroso.easyssh.svg

<svg xmlns="http://www.w3.org/2000/svg" width="22" height="22" version="1.1">
 <path style="opacity:0.2" d="m 11,1.5 a 10,10 0 0 0 -10,10 10,10 0 0 0 1.1660156,4.671875 c 5.4335983,0.85223 12.5095954,0.0067 18.7343754,-3.341797 A 10,10 0 0 0 21,11.5 10,10 0 0 0 11,1.5 Z m 9.201172,13.916016 C 14.700031,17.981751 8.7975424,18.823174 3.7519531,18.382812 A 10,10 0 0 0 11,21.5 10,10 0 0 0 20.201172,15.416016 Z"/>
 <path style="fill:#4f4f4f" d="M 11,1 A 10,10 0 0 0 1,11 10,10 0 0 0 2.1660156,15.671875 c 5.4335983,0.85223 12.5095954,0.0067 18.7343754,-3.341797 A 10,10 0 0 0 21,11 10,10 0 0 0 11,1 Z m 9.201172,13.916016 C 14.700031,17.481751 8.7975424,18.323174 3.7519531,17.882812 A 10,10 0 0 0 11,21 10,10 0 0 0 20.201172,14.916016 Z"/>
 <path style="opacity:0.2" d="m 6,5.5 v 1 H 5.5 C 4.669,6.5 4,7.169 4,8 4,8.831 4.669,9.5 5.5,9.5 H 6 v 1 H 4.0918 c 0.206,0.582 0.754,1 1.4082,1 H 6 v 1 h 1 v -1 H 7.5 C 8.331,11.5 9,10.831 9,10 9,9.169 8.331,8.5 7.5,8.5 H 7 v -1 H 8.908 C 8.702,6.918 8.154,6.5 7.5,6.5 H 7 v -1 z m -0.5,2 H 6 v 1 H 5.5 C 5.223,8.5 5,8.277 5,8 5,7.723 5.223,7.5 5.5,7.5 Z M 7,9.5 H 7.5 C 7.777,9.5 8,9.723 8,10 8,10.277 7.777,10.513 7.5,10.5 H 7 Z"/>
 <path style="fill:#ffffff" d="M 6,5 V 6 H 5.5 C 4.669,6 4,6.669 4,7.5 4,8.331 4.669,9 5.5,9 H 6 v 1 H 4.0918 c 0.206,0.582 0.754,1 1.4082,1 H 6 v 1 H 7 V 11 H 7.5 C 8.331,11 9,10.331 9,9.5 9,8.669 8.331,8 7.5,8 H 7 V 7 H 8.908 C 8.702,6.418 8.154,6 7.5,6 H 7 V 5 Z M 5.5,7 H 6 V 8 H 5.5 C 5.223,8 5,7.777 5,7.5 5,7.223 5.223,7 5.5,7 Z M 7,9 H 7.5 C 7.777,9 8,9.223 8,9.5 8,9.777 7.777,10.013 7.5,10 H 7 Z"/>
 <rect style="opacity:0.2" width="4" height="1" x="9" y="12.5"/>
 <path style="opacity:0.2;fill:none;stroke:#000000" d="M 13,9.499254 15.5,7.999252 18,9.499254"/>
 <path style="fill:none;stroke:#ffffff" d="m 13,8.9994985 2.5,-1.5 2.5,1.5"/>
 <rect style="fill:#ffffff" width="4" height="1" x="9" y="12"/>
 <path style="opacity:0.1;fill:#ffffff" d="M 11,1 A 10,10 0 0 0 1,11 10,10 0 0 0 1.0097656,11.207031 10,10 0 0 1 11,1.5 10,10 0 0 1 20.992188,11.333984 10,10 0 0 0 21,11 10,10 0 0 0 11,1 Z m 9.201172,13.916016 C 14.700031,17.481751 8.7975424,18.323175 3.7519531,17.882812 a 10,10 0 0 0 0.5546875,0.529297 C 9.139506,18.741223 14.689903,17.910838 19.910156,15.539062 a 10,10 0 0 0 0.291016,-0.623046 z"/>
</svg>

<svg xmlns="http://www.w3.org/2000/svg" width="22" height="22"><path style="opacity:.2" d="M11 1.5a10 10 0 0 0-10 10 10 10 0 0 0 1.166 4.672c5.434.852 12.51.007 18.734-3.342a10 10 0 0 0 .1-1.33 10 10 0 0 0-10-10zm9.201 13.916C14.7 17.982 8.798 18.823 3.752 18.383A10 10 0 0 0 11 21.5a10 10 0 0 0 9.201-6.084z"/><path style="fill:#4f4f4f" d="M11 1A10 10 0 0 0 1 11a10 10 0 0 0 1.166 4.672c5.434.852 12.51.007 18.734-3.342A10 10 0 0 0 21 11 10 10 0 0 0 11 1zm9.201 13.916C14.7 17.482 8.798 18.323 3.752 17.883A10 10 0 0 0 11 21a10 10 0 0 0 9.201-6.084z"/><path style="opacity:.2" d="M6 5.5v1h-.5C4.669 6.5 4 7.169 4 8s.669 1.5 1.5 1.5H6v1H4.092c.206.582.754 1 1.408 1H6v1h1v-1h.5c.831 0 1.5-.669 1.5-1.5s-.669-1.5-1.5-1.5H7v-1h1.908c-.206-.582-.754-1-1.408-1H7v-1zm-.5 2H6v1h-.5a.499.499 0 1 1 0-1zm1.5 2h.5c.277 0 .5.223.5.5s-.223.513-.5.5H7z"/><path style="fill:#fff" d="M6 5v1h-.5C4.669 6 4 6.669 4 7.5S4.669 9 5.5 9H6v1H4.092c.206.582.754 1 1.408 1H6v1h1v-1h.5c.831 0 1.5-.669 1.5-1.5S8.331 8 7.5 8H7V7h1.908c-.206-.582-.754-1-1.408-1H7V5zm-.5 2H6v1h-.5a.499.499 0 1 1 0-1zM7 9h.5c.277 0 .5.223.5.5s-.223.513-.5.5H7z"/><path style="opacity:.2" d="M9 12.5h4v1H9z"/><path style="opacity:.2;fill:none;stroke:#000" d="M13 9.5 15.5 8 18 9.5"/><path style="fill:none;stroke:#fff" d="m13 9 2.5-1.5L18 9"/><path style="fill:#fff" d="M9 12h4v1H9z"/><path style="opacity:.1;fill:#fff" d="M11 1A10 10 0 0 0 1 11a10 10 0 0 0 .01.207A10 10 0 0 1 11 1.5a10 10 0 0 1 9.992 9.834A10 10 0 0 0 21 11 10 10 0 0 0 11 1zm9.201 13.916C14.7 17.482 8.798 18.323 3.752 17.883a10 10 0 0 0 .555.53c4.833.328 10.383-.502 15.603-2.874a10 10 0 0 0 .291-.623z"/></svg>
